X:1
T:The Shepherd’s Fold on High
T:The Shepherd’s Fold on High
T:John Robson Sweney
T:Frances Jane (Fanny) Crosby, 1892
T:Public Domain Courtesy of the Cyber Hymnal™
T:Public Domain Courtesy of the Cyber Hymnal™
C:John Robson Sweney
Z:Public Domain
Z:Courtesy of the Cyber Hymnal™
%%score ( 1 2 ) ( 3 4 )
L:1/8
Q:1/4=95
M:4/4
K:C
V:1 treble 
V:2 treble 
V:3 bass 
V:4 bass 
V:1
 [CE]>[DF] | [EG]>[EG] [FB]>[FA] [EG]>[CE] [CE]>[DF] | [EG]>[Ec] [FA]>[Fc] [Ec]2 [Ec]>[Fd] | %3
w: 1.~When the|sheep have all been ga- thered, To the|Shep- herd’s fold on high, And are|
w: 2.~When our|fi- nal march is end- ed, And the|last dread con- flict o’er; When the|
w: 3.~There’s a|ri- ver that pro- ceed- eth From our|Fa- ther’s throne a- bove, Still re-|
 [Ge]>[Ge] [Ge]>[Fd] [Ec]>[EG] [Ec]>[CE] | [CE]>C [B,F]>[CE] [B,D]2 [B,D]>[CE] | %5
w: res- ting, sweet- ly rest- ing ’Neath a|calm, un- chang- ing sky; When we|
w: world re- cedes for- ev- er, To re-|volve as now no more; When the|
w: flect- ing on its bo- som His e-|ter- nal light of love; Oh, to|
 [DF]>[^CE] [DF]>[FA] [FA][EG] [CE]>[DF] | [EG]>[Ec] [Ec]>[Ad] [^Ge]2 [Ge]>[Gd] | %7
w: look with cloud- less vi- sion Stretch- ing|far and far a- way, O’er that|
w: hosts of God’s re- deemed ones With the|grand or- ches- tral throng Of the|
w: think that on its mar- gin With our|kin- dred we may dwell, In a|
 [Ad]>[Ac] [GB]>[FA] [FA][EG] [CE]>[DF] | [EG]>[Ec] [DB]>[Fd] [Ec]2 ||"^Refrain" [Ec]>[CE] | %10
w: land be- yond the sun- set, Where the|morn- ing breez- es play.||
w: an- gels and arch- an- gels Shout their|hal- le- luj- ah song.|There, be-|
w: home be- yond the sha- dows Ne- ver|more to say fare- well.||
 [DF]4- [DF]>[^CE] [DF]>[FA] | [EG]4 [CE]2 [Ec]>[Fd] | [Ge]>[Fd] [Ec]>[FA] [EG]>[CE] [Ec]>[CE] | %13
w: |||
w: side * the wells of|wa- ter From ce-|les- tial springs, Ce- les- tial springs that|
w: |||
 [B,D]6 G>F | (E2- E2-) E>[EG] [Ge]>[Ec] | [Fc]4 [FA]2 [GB]>[FA] | [EG]4- [EG]>[Ec] [Fd]>[DB] | %17
w: ||||
w: flow, There the|ev- * * er- last- ing|kind- ness Of our|Sav- * ior we shall|
w: ||||
 [Ec]6 |] %18
w: |
w: know.|
w: |
V:2
 x2 | x8 | x8 | x8 | x8 | x8 | x8 | x8 | x6 || x2 | x8 | x8 | x8 | x8 | x2 (C>C C) x3 | x8 | x8 | %17
 x6 |] %18
V:3
 [C,G,]>[C,G,] | [C,C]>[C,C] [C,C]>[C,C] [C,C]>[C,G,] [C,G,]>[C,G,] | %2
 [C,C]>[C,C] [C,C]>[C,A,] [C,G,]2 [C,G,]>[C,G,] | %3
 [C,C]>[C,C] [C,C]>[C,G,] [C,G,]>[C,G,] [C,G,]>[C,G,] | %4
 [C,G,]>[E,G,] [D,G,]>[C,G,] [G,,G,]2 G,>G, | %5
 [G,B,]>[G,^A,] [G,B,]>[G,B,] [C,C][C,C] [C,G,]>[C,G,] | %6
 [C,C]>[C,G,] [F,A,]>[F,A,] [E,B,]2 [E,B,]>[E,B,] | %7
 [F,A,]>[F,C] [F,C]>[F,C] [C,C][C,C] [C,G,]>[C,G,] | [C,G,]>[C,G,] [G,,G,]>[G,,G,] [C,G,]2 || z2 | %10
 z2 [G,B,]>[G,B,] [G,B,]>[G,^A,] [G,B,]>[G,B,] | [C,C]4 [C,G,]2 [C,G,]>[C,G,] | %12
 [C,G,]>[C,G,] [C,G,]>[C,C] [C,C]>[C,G,] [C,G,]>[C,G,] | (G,2 G,>G,G,F,) E,>D, | %14
 (C,2 G,>G, G,>)G, C>_B, | A,4 C2 z2 | z2 ([G,C]>[G,C] [G,C]>)G, [G,,G,]>[G,,G,] | [C,G,]6 |] %18
V:4
 x2 | x8 | x8 | x8 | x8 | x8 | x8 | x8 | x6 || x2 | x8 | x8 | x8 | x8 | x2 C,2 C,-C, C,2 | %15
 (F,>F,F,>F,) (F,>F,) x2 | x8 | x6 |] %18

